static/images/logos/trusted-by/bosch.svg

<svg xmlns="http://www.w3.org/2000/svg" width="110" height="37" viewBox="0 0 110 37" fill="none">
    <path fill-rule="evenodd" clip-rule="evenodd" d="M13.3032 22.6258C13.3032 21.2631 12.295 20.3203 10.1792 20.3203H5.93951V24.9669H10.2827C12.0535 24.9669 13.3032 24.3377 13.3032 22.6258ZM12.5405 13.4038C12.5405 12.0759 11.6358 11.1675 10.2827 11.1675H5.93951V15.5692H10.1792C11.7048 15.5692 12.5405 14.4517 12.5405 13.4038ZM19.6243 23.2891C19.6243 27.2723 15.9443 29.8925 12.2262 29.8925H0.105469V6.24103H11.218C15.492 6.24103 18.5816 8.37076 18.5816 12.7392C18.5816 16.4777 15.3195 17.5954 15.3195 17.5954C15.3195 17.6306 19.6243 18.6089 19.6243 23.2891ZM37.7669 18.05C37.7669 14.3466 36.065 11.3422 32.6995 11.3422C29.33 11.3422 27.6626 14.3466 27.6626 18.05C27.6626 21.7876 29.33 24.7917 32.6995 24.7917C36.065 24.7917 37.7669 21.7876 37.7669 18.05ZM43.6011 18.05C43.6011 25.0016 39.6069 30.4514 32.6995 30.4514C25.8226 30.4514 21.7939 25.0016 21.7939 18.05C21.7939 11.1326 25.8226 5.64844 32.6956 5.64844C39.6069 5.64844 43.6011 11.1328 43.6011 18.05ZM63.9672 22.7306C63.9672 27.936 59.2447 30.4514 54.8019 30.4514C49.6616 30.4514 47.0205 28.4949 44.939 26.0148L48.7224 22.311C50.3208 24.3377 52.4061 25.3511 54.7329 25.3511C56.6418 25.3511 57.9259 24.4078 57.9259 23.01C57.9259 21.5082 56.7914 21.0401 53.6864 20.3898L52.8545 20.2155C49.1172 19.4324 46.0466 17.3163 46.0466 13.0891C46.0466 8.44344 49.834 5.64844 54.8364 5.64844C59.072 5.64844 61.8168 7.4645 63.4842 9.34953L59.8004 12.9843C58.6543 11.7614 56.9179 10.7833 54.9399 10.7833C53.5868 10.7833 52.0574 11.4122 52.0574 12.9843C52.0574 14.4166 53.648 14.9362 55.6683 15.3598L56.5038 15.535C59.8848 16.2426 63.9672 17.2815 63.9672 22.7306ZM86.522 25.3158C84.0917 28.8093 81.8339 30.4514 77.1458 30.4514C70.4798 30.4514 66.1713 24.9316 66.1713 17.9099C66.1713 11.2374 70.062 5.68284 77.2148 5.68284C81.14 5.68284 83.9537 7.2198 86.3495 10.8184L81.558 13.9975C80.5843 12.3203 79.3347 11.3424 77.2493 11.3424C74.6121 11.3424 72.0745 13.6954 72.0745 17.9099C72.0745 22.6327 74.819 24.7917 77.4256 24.7917C79.6796 24.7917 80.7222 23.6737 81.6959 22.0667L86.522 25.3158ZM108.766 29.8925H102.514V20.565H95.3231V29.8923H89.1095V6.24121H95.3231V14.9404H102.514V6.24121H108.766V29.8927" fill="#ADADB0"/>
</svg>

<svg xmlns="http://www.w3.org/2000/svg" width="110" height="37" fill="none"><path fill="#ADADB0" fill-rule="evenodd" d="M13.303 22.626c0-1.363-1.008-2.306-3.124-2.306H5.94v4.647h4.344c1.77 0 3.02-.63 3.02-2.341Zm-.763-9.222c0-1.328-.904-2.236-2.257-2.236H5.94v4.401h4.24c1.525 0 2.36-1.117 2.36-2.165Zm7.084 9.885c0 3.983-3.68 6.603-7.398 6.603H.106V6.241h11.112c4.274 0 7.364 2.13 7.364 6.498 0 3.739-3.263 4.856-3.263 4.856 0 .036 4.305 1.014 4.305 5.694Zm18.143-5.239c0-3.703-1.702-6.708-5.068-6.708-3.369 0-5.036 3.005-5.036 6.708 0 3.738 1.667 6.742 5.037 6.742 3.365 0 5.067-3.004 5.067-6.742Zm5.834 0c0 6.952-3.994 12.401-10.901 12.401-6.877 0-10.906-5.45-10.906-12.401 0-6.917 4.029-12.402 10.902-12.402 6.91 0 10.905 5.485 10.905 12.402Zm20.366 4.68c0 5.206-4.722 7.721-9.165 7.721-5.14 0-7.782-1.956-9.863-4.436l3.783-3.704c1.599 2.027 3.684 3.04 6.01 3.04 1.91 0 3.194-.943 3.194-2.341 0-1.502-1.135-1.97-4.24-2.62l-.831-.175c-3.738-.783-6.808-2.899-6.808-7.126 0-4.646 3.787-7.44 8.79-7.44 4.235 0 6.98 1.816 8.647 3.7L59.8 12.985c-1.146-1.223-2.882-2.2-4.86-2.2-1.353 0-2.883.628-2.883 2.2 0 1.433 1.591 1.952 3.611 2.376l.836.175c3.38.708 7.463 1.747 7.463 7.196Zm22.555 2.586c-2.43 3.493-4.688 5.135-9.376 5.135-6.666 0-10.975-5.52-10.975-12.541 0-6.673 3.891-12.227 11.044-12.227 3.925 0 6.739 1.537 9.135 5.135l-4.792 3.18c-.974-1.678-2.223-2.656-4.309-2.656-2.637 0-5.174 2.353-5.174 6.568 0 4.723 2.744 6.882 5.35 6.882 2.255 0 3.297-1.118 4.27-2.725l4.827 3.249Zm22.244 4.576h-6.252v-9.327h-7.19v9.327h-6.215V6.242h6.214v8.698h7.191V6.241h6.252v23.652" clip-rule="evenodd"/></svg>
